X: 33
T:Sawdl y Fuwch
M:C|
L:1/8
Q:220
C:Trad
S:Blodau'r Grug Collection Vol. 3
A:Wales
Z:brian_martin12345@yahoo.com
K:Dm
A2|defe d2^c2|d6cB|A2F2 FGAB|c3dc2B2|A2G2 FGAF|G3FE2 AG|FEDE F2E2|D6:||
(3CDE|F2F2F2ED|C2c2c2c2|c3d ecde|f2c2A2F2|F2FGA2B2|c3dc2B2|A2GF~G3F|
F4F2F2|E2F2G2A2|B2A2G2F2|G3FE2D2|E2^C2C4|A2A=B^c2A2|d2A2G2F2|
E2ED ^C3E|D6:||

